icons/outline/phone.svg

<svg width="24" height="24" viewBox="0 0 24 24" fill="none" xmlns="http://www.w3.org/2000/svg">
<path d="M2.25 6.75C2.25 15.0343 8.96573 21.75 17.25 21.75H19.5C20.7426 21.75 21.75 20.7426 21.75 19.5V18.1284C21.75 17.6121 21.3987 17.1622 20.8979 17.037L16.4747 15.9312C16.0355 15.8214 15.5734 15.9855 15.3018 16.3476L14.3316 17.6412C14.05 18.0166 13.563 18.1827 13.1223 18.0212C9.81539 16.8098 7.19015 14.1846 5.97876 10.8777C5.81734 10.437 5.98336 9.94998 6.3588 9.6684L7.65242 8.69818C8.01453 8.4266 8.17861 7.96445 8.06883 7.52533L6.96304 3.10215C6.83783 2.60133 6.38785 2.25 5.87163 2.25H4.5C3.25736 2.25 2.25 3.25736 2.25 4.5V6.75Z" stroke="#0F172A" stroke-width="1.5" stroke-linecap="round" stroke-linejoin="round"/>
</svg>

<svg xmlns="http://www.w3.org/2000/svg" fill="none" viewBox="0 0 24 24" stroke-width="1.5" stroke="currentColor" aria-hidden="true" data-slot="icon">
  <path stroke-linecap="round" stroke-linejoin="round" d="M2.25 6.75c0 8.284 6.716 15 15 15h2.25a2.25 2.25 0 0 0 2.25-2.25v-1.372c0-.516-.351-.966-.852-1.091l-4.423-1.106c-.44-.11-.902.055-1.173.417l-.97 1.293c-.282.376-.769.542-1.21.38a12.035 12.035 0 0 1-7.143-7.143c-.162-.441.004-.928.38-1.21l1.293-.97c.363-.271.527-.734.417-1.173L6.963 3.102a1.125 1.125 0 0 0-1.091-.852H4.5A2.25 2.25 0 0 0 2.25 4.5v2.25Z"/>
</svg>
